humanity-icon-theme/Humanity/animations/24/brasero-disc-30.svg

<?xml version="1.0" encoding="UTF-8" standalone="no"?>
<!-- Created with Inkscape (http://www.inkscape.org/) -->
<svg
   xmlns:svg="http://www.w3.org/2000/svg"
   xmlns="http://www.w3.org/2000/svg"
   xmlns:xlink="http://www.w3.org/1999/xlink"
   version="1.0"
   width="24"
   height="24"
   id="svg2494">
  <defs
     id="defs2496">
    <linearGradient
       x1="35.007519"
       y1="23.178743"
       x2="35.007519"
       y2="4.9945626"
       id="linearGradient2490"
       xlink:href="#linearGradient3587-6-5"
       gradientUnits="userSpaceOnUse"
       gradientTransform="translate(-24.785715,-2.035714)" />
    <linearGradient
       id="linearGradient3587-6-5">
      <stop
         id="stop3589-9-2"
         style="stop-color:#000000;stop-opacity:1"
         offset="0" />
      <stop
         id="stop3591-7-4"
         style="stop-color:#363636;stop-opacity:1"
         offset="1" />
    </linearGradient>
    <linearGradient
       x1="15.669166"
       y1="-2.6219723"
       x2="15.669166"
       y2="11.969362"
       id="linearGradient2487"
       xlink:href="#linearGradient3587-6-5"
       gradientUnits="userSpaceOnUse"
       gradientTransform="matrix(0.9302326,0,0,1.2359551,-10.575969,6.1536003)" />
  </defs>
  <g
     id="layer1">
    <path
       d="M 12,5 C 7.5840001,5 3.9999998,8.5840001 4,13 C 4,17.416 7.5840002,21 12,21 C 16.416,21 20,17.416 20,13 C 20,8.5840001 16.416,5.0000002 12,5 z M 12,10 C 13.656,10 15,11.344 15,13 C 15,14.656 13.656,16 12,16 C 10.344,16 9,14.656 9,13 C 9.0000001,11.344 10.344,10 12,10 z"
       id="path3229"
       style="opacity:0.6;fill:#ffffff;fill-opacity:1;fill-rule:evenodd;stroke:none;stroke-width:1;stroke-linecap:butt;stroke-linejoin:miter;marker:none;marker-start:none;marker-mid:none;marker-end:none;stroke-miterlimit:4;stroke-dasharray:none;stroke-dashoffset:0;stroke-opacity:1;visibility:visible;display:inline;overflow:visible;enable-background:accumulate" />
    <path
       d="M 12,4 C 7.5840001,4 3.9999998,7.5840001 4,12 C 4,16.416 7.5840002,20 12,20 C 15.56385,20 18.560166,17.659511 19.59375,14.4375 L 14.875,12.84375 C 14.506879,14.084088 13.3593,15 12,15 C 10.344,15 9,13.656 9,12 C 9.0000001,10.344 10.344,9 12,9 L 12,4 z M 20,12 C 20,12.404739 19.963077,12.800153 19.90625,13.1875 C 19.964032,12.799873 20,12.40363 20,12 z M 19.90625,13.3125 C 19.862832,13.579521 19.788565,13.835906 19.71875,14.09375 C 19.788073,13.837344 19.86249,13.578402 19.90625,13.3125 z"
       id="path3170"
       style="opacity:0.41999996;fill:url(#linearGradient2490);fill-opacity:1;fill-rule:evenodd;stroke:none;stroke-width:1;stroke-linecap:butt;stroke-linejoin:miter;marker:none;marker-start:none;marker-mid:none;marker-end:none;stroke-miterlimit:4;stroke-dasharray:none;stroke-dashoffset:0;stroke-opacity:1;visibility:visible;display:inline;overflow:visible;enable-background:accumulate" />
    <path
       d="M 12,4 L 12,9 C 13.656,9.0000001 15,10.344 15,12 C 15,12.295765 14.96319,12.574348 14.882848,12.84375 L 19.625,14.4375 C 19.872009,13.667155 20,12.851831 20,12 C 20,7.5840001 16.416,4.0000002 12,4 z"
       id="path3288"
       style="opacity:0.7;fill:url(#linearGradient2487);fill-opacity:1;fill-rule:nonzero;stroke:none;stroke-width:1;stroke-linecap:butt;stroke-linejoin:miter;marker:none;marker-start:none;marker-mid:none;marker-end:none;stroke-miterlimit:4;stroke-dasharray:none;stroke-dashoffset:0;stroke-opacity:1;visibility:visible;display:inline;overflow:visible;enable-background:accumulate" />
  </g>
</svg>

<?xml version="1.0" encoding="UTF-8" standalone="no"?>
<!-- Created with Inkscape (http://www.inkscape.org/) -->
<svg id="svg2494" xmlns="http://www.w3.org/2000/svg" height="24" width="24" version="1.0" xmlns:xlink="http://www.w3.org/1999/xlink">
 <defs id="defs2496">
  <linearGradient id="linearGradient2490" y2="4.9946" xlink:href="#linearGradient3587-6-5" gradientUnits="userSpaceOnUse" x2="35.008" gradientTransform="translate(-24.786 -2.0357)" y1="23.179" x1="35.008"/>
  <linearGradient id="linearGradient3587-6-5">
   <stop id="stop3589-9-2" offset="0"/>
   <stop id="stop3591-7-4" style="stop-color:#363636" offset="1"/>
  </linearGradient>
  <linearGradient id="linearGradient2487" y2="11.969" xlink:href="#linearGradient3587-6-5" gradientUnits="userSpaceOnUse" x2="15.669" gradientTransform="matrix(.93023 0 0 1.236 -10.576 6.1536)" y1="-2.622" x1="15.669"/>
 </defs>
 <g id="layer1">
  <path id="path3229" style="opacity:.6;fill-rule:evenodd;fill:#fff" d="m12 5c-4.416 0-8 3.584-8 8s3.584 8 8 8 8-3.584 8-8-3.584-8-8-8zm0 5c1.656 0 3 1.344 3 3s-1.344 3-3 3-3-1.344-3-3 1.344-3 3-3z"/>
  <path id="path3170" style="opacity:0.42;fill-rule:evenodd;fill:url(#linearGradient2490)" d="m12 4c-4.416 0-8 3.584-8 8s3.584 8 8 8c3.564 0 6.56-2.34 7.594-5.562l-4.719-1.594c-0.368 1.24-1.516 2.156-2.875 2.156-1.656 0-3-1.344-3-3s1.344-3 3-3v-5zm8 8c0 0.405-0.037 0.8-0.094 1.188 0.058-0.388 0.094-0.784 0.094-1.188zm-0.094 1.312c-0.043 0.268-0.117 0.524-0.187 0.782 0.069-0.257 0.143-0.516 0.187-0.782z"/>
  <path id="path3288" style="opacity:.7;fill:url(#linearGradient2487)" d="m12 4v5c1.656 0 3 1.344 3 3 0 0.296-0.037 0.574-0.117 0.844l4.742 1.594c0.247-0.771 0.375-1.586 0.375-2.438 0-4.416-3.584-8-8-8z"/>
 </g>
</svg>
